ui/StatusQ/src/assets/img/icons/linkPreviewThumbnails/github.svg

<svg fill="none" height="40" viewBox="0 0 40 40" width="40" xmlns="http://www.w3.org/2000/svg" xmlns:xlink="http://www.w3.org/1999/xlink"><clipPath id="a"><path d="m3 3h34v34h-34z"/></clipPath><rect fill="#fff" height="40" rx="20" width="40"/><g clip-path="url(#a)"><path clip-rule="evenodd" d="m20.0555 3.38867c-9.4385 0-17.05745 7.61893-17.05745 17.05743 0 7.5052 4.88979 13.8733 11.71275 16.1477.9097.1137 1.1372-.3412 1.1372-.7961v-2.9566c-4.7761 1.0235-5.7996-2.2743-5.7996-2.2743-.79597-1.9332-1.93313-2.5018-1.93313-2.5018-1.59203-1.0234.11372-1.0234.11372-1.0234 1.70574.1137 2.61551 1.7057 2.61551 1.7057 1.4783 2.6155 3.98 1.8195 5.0035 1.3646.1137-1.1371.5685-1.8194 1.1371-2.2743-3.7526-.4548-7.73267-1.9332-7.73267-8.415 0-1.8194.6823-3.4114 1.70577-4.5486-.2275-.4549-.796-2.1606.1137-4.5487 0 0 1.4783-.45481 4.6623 1.7058 1.3646-.3412 2.8429-.5686 4.3213-.5686 1.4783 0 2.9566.2274 4.3212.5686 3.2977-2.16061 4.6623-1.7058 4.6623-1.7058.9098 2.3881.3412 4.0938.1137 4.5487 1.1372 1.1372 1.7058 2.7292 1.7058 4.5486 0 6.5956-3.9801 7.9602-7.7327 8.415.5686.5686 1.1371 1.592 1.1371 3.1841v4.6623c0 .4549.3412 1.0235 1.1372.796 6.823-2.2743 11.599-8.6424 11.599-16.1476.1138-9.3248-7.5052-16.94373-16.9436-16.94373z" fill="#000" fill-rule="evenodd"/></g></svg>

<svg width="40" height="40" viewBox="0 0 40 40" fill="none" xmlns="http://www.w3.org/2000/svg">
<rect width="40" height="40" rx="20" fill="white"/>
<g clip-path="url(#clip0)">
<path fill-rule="evenodd" clip-rule="evenodd" d="M20.0555 3.38867C10.617 3.38867 2.99805 11.0076 2.99805 20.4461C2.99805 27.9513 7.88784 34.3194 14.7108 36.5938C15.6205 36.7075 15.848 36.2526 15.848 35.7977V32.8411C11.0719 33.8646 10.0484 30.5668 10.0484 30.5668C9.25243 28.6336 8.11527 28.065 8.11527 28.065C6.52324 27.0416 8.22899 27.0416 8.22899 27.0416C9.93473 27.1553 10.8445 28.7473 10.8445 28.7473C12.3228 31.3628 14.8245 30.5668 15.848 30.1119C15.9617 28.9748 16.4165 28.2925 16.9851 27.8376C13.2325 27.3828 9.25243 25.9044 9.25243 19.4226C9.25243 17.6032 9.93473 16.0112 10.9582 14.874C10.7307 14.4191 10.1622 12.7134 11.0719 10.3253C11.0719 10.3253 12.5502 9.87049 15.7342 12.0311C17.0988 11.6899 18.5771 11.4625 20.0555 11.4625C21.5338 11.4625 23.0121 11.6899 24.3767 12.0311C27.6744 9.87049 29.039 10.3253 29.039 10.3253C29.9488 12.7134 29.3802 14.4191 29.1527 14.874C30.2899 16.0112 30.8585 17.6032 30.8585 19.4226C30.8585 26.0182 26.8784 27.3828 23.1258 27.8376C23.6944 28.4062 24.2629 29.4296 24.2629 31.0217V35.684C24.2629 36.1389 24.6041 36.7075 25.4001 36.48C32.2231 34.2057 36.9991 27.8376 36.9991 20.3324C37.1129 11.0076 29.4939 3.38867 20.0555 3.38867Z" fill="black"/>
</g>
<defs>
<clipPath id="clip0">
<rect width="34" height="34" fill="white" transform="translate(3 3)"/>
</clipPath>
</defs>
</svg>
